X:7457
T:I Know What You Like Jig
M:6/8
L:1/8
K:G
D/ z/2|DGG GFG|BAA A3/2c3/2|Bdg ecA|BGB AFD|!
DGG GFG|BAA A3/2c3/2|Bdg ecA|BGG G2:|!
|:c|Bdg edc|BGG GAG|FGA BAG|FDD D2 c|!
Bdg edc|BGB dcA|Bdg ecA|BGG G2:|!


